!!!OTL: Catherine virginis laudes
**kern
*staff1
=--
*clefC1
*k[]
*M3/1
0b
1cc
=-
0b
1b
=-
2cc
2b
2a
2g
1f
=-
1g
1.a
2g
=-
0g
1e
=-
0g
1b
=-
1cc
1.a
2g
=-
1e
1.f
2e
=-
0e
1c
=-
0e
1g
=-
0a
1b
=-
0.dd
=-
!!linebreak:original
0ee
1ee
0dd
1cc
1b
1.a
2g
0f
1f
0g
0g
1b
2g
1b
1a
1.cc
2a
1b
0b
0.b
1b
1.cc
2a
1b
0b
0.a
=-=
*-
!!title: @{OTL}, @{GTL}, ed. @{ENC}
!!!pag:
!!!GTL: Hymnbook C
!!!EFL: 
!!!YEM: Creative Commons CC/BY/NC/SA 4.0
!!!ENC: Marcin Konik
!!!END: 2015-0m-dd
!!!EED: Marcin Konik
!!!EEV: 
!!!ONB: Encoded in vim by Marcin Konik
!!!CharacterEncoding: utf-8
!!!RDF**kern: l=long note in original notation
!!!RDF**kern: i=editorial accidental
!!muse2ps: z14jc180F
!!!COM: Anonim
!!!CDT: [?]
!!!TXO: Polish
!!!ODT: 
!!!GTL: Hymnbook C
!!!ARL: Opactwo św. Wojciecha, Staniątki 
!!!voices:	1
